assets/img/braze_icons/columns-03.svg

<svg fill="none" height="24" viewBox="0 0 24 24" width="24" xmlns="http://www.w3.org/2000/svg"><g fill="#801ed7"><path d="m7 3.59999c0-.57416 0-.86124-.11276-1.07811-.09743-.18737-.26049-.34602-.45047-.43826-.21989-.10676-.49215-.09928-1.03669-.08432-.19882.00546-.3973.0151-.59511.03126-.39534.0323-.78856.10362-1.16694.29641-.56449.28762-1.02343.74656-1.31105 1.31105-.19279.37838-.26411.7716-.29641 1.16694-.0306.37457-.03059.82932-.03057 1.35645v11.67709c-.00002.5272-.00003.982.03057 1.3565.0323.3954.10362.7886.29641 1.167.28762.5645.74656 1.0234 1.31105 1.311.37838.1928.7716.2641 1.16694.2964.19781.0162.39629.0258.59511.0313.54454.0149.8168.0224 1.0367-.0843.18997-.0923.35303-.2509.45046-.4383.11276-.2169.11276-.5039.11276-1.0781z"/><path d="m9 20.4c0 .56 0 .8401.10899 1.054.09588.1881.24886.3411.43702.437.21391.109.49389.109 1.05399.109h2.8c.5601 0 .8401 0 1.054-.109.1882-.0959.3411-.2489.437-.437.109-.2139.109-.494.109-1.054v-16.80001c0-.56005 0-.84008-.109-1.05399-.0959-.18816-.2488-.34114-.437-.43702-.2139-.10899-.4939-.10899-1.054-.10899h-2.8c-.5601 0-.84008 0-1.05399.10899-.18816.09588-.34114.24886-.43702.43702-.10899.21391-.10899.49394-.10899 1.05399z"/><path d="m18.5999 1.9993c-.5445-.01496-.8168-.02244-1.0367.08432-.1899.09224-.353.25089-.4504.43826-.1128.21687-.1128.50395-.1128 1.07811v16.80001c0 .5741 0 .8612.1128 1.0781.0974.1874.2605.346.4504.4383.2199.1067.4922.0992 1.0367.0843.1988-.0055.3973-.0151.5951-.0313.3954-.0323.7886-.1036 1.167-.2964.5645-.2876 1.0234-.7465 1.311-1.311.1928-.3784.2641-.7716.2964-1.167.0306-.3745.0306-.8293.0306-1.3564v-11.67717c0-.52714 0-.9819-.0306-1.35647-.0323-.39534-.1036-.78856-.2964-1.16694-.2876-.56449-.7465-1.02343-1.311-1.31105-.3784-.19279-.7716-.26411-1.167-.29641-.1978-.01616-.3963-.0258-.5951-.03126z"/></g></svg>

<svg width="24" height="24" viewBox="0 0 24 24" fill="none" xmlns="http://www.w3.org/2000/svg">
<path d="M7 3.59999C7 3.02583 7 2.73875 6.88724 2.52188C6.78981 2.33451 6.62675 2.17586 6.43677 2.08362C6.21688 1.97686 5.94462 1.98434 5.40008 1.9993C5.20126 2.00476 5.00278 2.0144 4.80497 2.03056C4.40963 2.06286 4.01641 2.13418 3.63803 2.32697C3.07354 2.61459 2.6146 3.07353 2.32698 3.63802C2.13419 4.0164 2.06287 4.40962 2.03057 4.80496C1.99997 5.17953 1.99998 5.63428 2 6.16141V17.8385C1.99998 18.3657 1.99997 18.8205 2.03057 19.195C2.06287 19.5904 2.13419 19.9836 2.32698 20.362C2.6146 20.9265 3.07354 21.3854 3.63803 21.673C4.01641 21.8658 4.40963 21.9371 4.80497 21.9694C5.00278 21.9856 5.20126 21.9952 5.40008 22.0007C5.94462 22.0156 6.21688 22.0231 6.43678 21.9164C6.62675 21.8241 6.78981 21.6655 6.88724 21.4781C7 21.2612 7 20.9742 7 20.4V3.59999Z" fill="#801ED7"/>
<path d="M9 20.4C9 20.96 9 21.2401 9.10899 21.454C9.20487 21.6421 9.35785 21.7951 9.54601 21.891C9.75992 22 10.0399 22 10.6 22H13.4C13.9601 22 14.2401 22 14.454 21.891C14.6422 21.7951 14.7951 21.6421 14.891 21.454C15 21.2401 15 20.96 15 20.4V3.59999C15 3.03994 15 2.75991 14.891 2.546C14.7951 2.35784 14.6422 2.20486 14.454 2.10898C14.2401 1.99999 13.9601 1.99999 13.4 1.99999H10.6C10.0399 1.99999 9.75992 1.99999 9.54601 2.10898C9.35785 2.20486 9.20487 2.35784 9.10899 2.546C9 2.75991 9 3.03994 9 3.59999V20.4Z" fill="#801ED7"/>
<path d="M18.5999 1.9993C18.0554 1.98434 17.7831 1.97686 17.5632 2.08362C17.3733 2.17586 17.2102 2.33451 17.1128 2.52188C17 2.73875 17 3.02583 17 3.59999V20.4C17 20.9741 17 21.2612 17.1128 21.4781C17.2102 21.6655 17.3733 21.8241 17.5632 21.9164C17.7831 22.0231 18.0554 22.0156 18.5999 22.0007C18.7987 21.9952 18.9972 21.9856 19.195 21.9694C19.5904 21.9371 19.9836 21.8658 20.362 21.673C20.9265 21.3854 21.3854 20.9265 21.673 20.362C21.8658 19.9836 21.9371 19.5904 21.9694 19.195C22 18.8205 22 18.3657 22 17.8386V6.16143C22 5.63429 22 5.17953 21.9694 4.80496C21.9371 4.40962 21.8658 4.0164 21.673 3.63802C21.3854 3.07353 20.9265 2.61459 20.362 2.32697C19.9836 2.13418 19.5904 2.06286 19.195 2.03056C18.9972 2.0144 18.7987 2.00476 18.5999 1.9993Z" fill="#801ED7"/>
</svg>
